alarm-light-outline.svg

<svg fill="currentColor" viewBox="0 0 24 24"><path d="M6 6.9 3.87 4.78l1.41-1.41L7.4 5.5zM13 1v3h-2V1zm7.13 3.78L18 6.9l-1.4-1.4 2.12-2.13zM4.5 10.5v2h-3v-2zm15 0h3v2h-3zM6 20h12a2 2 0 0 1 2 2H4a2 2 0 0 1 2-2m6-15a6 6 0 0 1 6 6v8H6v-8a6 6 0 0 1 6-6m0 2a4 4 0 0 0-4 4v6h8v-6a4 4 0 0 0-4-4"/></svg>

<svg  viewBox="0 0 24 24" fill="currentColor"><path  d="M6,6.9L3.87,4.78L5.28,3.37L7.4,5.5L6,6.9M13,1V4H11V1H13M20.13,4.78L18,6.9L16.6,5.5L18.72,3.37L20.13,4.78M4.5,10.5V12.5H1.5V10.5H4.5M19.5,10.5H22.5V12.5H19.5V10.5M6,20H18A2,2 0 0,1 20,22H4A2,2 0 0,1 6,20M12,5A6,6 0 0,1 18,11V19H6V11A6,6 0 0,1 12,5M12,7A4,4 0 0,0 8,11V17H16V11A4,4 0 0,0 12,7Z"/></svg>
